src/home/img/view-topic-qna.svg

<svg height="710" viewBox="0 0 1124 710" width="1124" xmlns="http://www.w3.org/2000/svg" xmlns:xlink="http://www.w3.org/1999/xlink"><linearGradient id="a" x1="50.007%" x2="50.007%" y1="-141.4%" y2="-47.015%"><stop offset="0" stop-color="#2a6cbe"/><stop offset=".38688" stop-color="#2062bc"/><stop offset=".49182" stop-color="#1f5fbc"/><stop offset=".66583" stop-color="#1c5abd"/><stop offset=".85354" stop-color="#1956bc"/><stop offset="1" stop-color="#1851be"/></linearGradient><g fill="none" fill-rule="evenodd"><rect fill="#8792a2" height="32" opacity=".238" rx="16" width="456.205" x="129" y="105"/><rect fill="#ffb300" height="10" opacity=".453" rx="5" width="110" x="79" y="80"/><rect fill="#ffb300" height="10" rx="5" width="23" x="51" y="80"/><rect fill="#8792a2" height="32" opacity=".238" rx="16" width="68" x="51" y="105"/><ellipse cx="85.067" cy="261.333" fill="#8792a2" opacity=".24" rx="35.031" ry="35.029"/><ellipse cx="110.361" cy="235.361" fill="#1eb8c1" rx="8.361" ry="8.361" stroke="#fff" stroke-width="4"/><path d="m65.4493971 35.4840882c6.9069169 0 12.5060793 5.5991624 12.5060793 12.5060793s-5.5991624 12.5060794-12.5060793 12.5060794h-52.0564077c-6.9069169 0-12.50607934-5.5991625-12.50607934-12.5060794s5.59916244-12.5060793 12.50607934-12.5060793zm320.1273379 0c6.906916 0 12.506079 5.5991624 12.506079 12.5060793s-5.599163 12.5060794-12.506079 12.5060794h-285.183746c-6.9069165 0-12.5060789-5.5991625-12.5060789-12.5060794s5.5991624-12.5060793 12.5060789-12.5060793zm139.804096-34.98784133c6.906917 0 12.506079 5.59916244 12.506079 12.50607933 0 6.9069169-5.599162 12.5060794-12.506079 12.5060794h-511.9878416c-6.9069169 0-12.50607934-5.5991625-12.50607934-12.5060794 0-6.90691689 5.59916244-12.50607933 12.50607934-12.50607933zm304 0c6.906917 0 12.506079 5.59916244 12.506079 12.50607933 0 6.9069169-5.599162 12.5060794-12.506079 12.5060794h-268.987842c-6.906916 0-12.506079-5.5991625-12.506079-12.5060794 0-6.90691689 5.599163-12.50607933 12.506079-12.50607933zm-704.993921 105.00000013c6.903559 0 12.5 5.59644 12.5 12.5 0 6.903559-5.596441 12.5-12.5 12.5h-110.9999999c-6.90355941 0-12.50000004-5.596441-12.50000004-12.5 0-6.90356 5.59644063-12.5 12.50000004-12.5zm176 0c6.903559 0 12.5 5.59644 12.5 12.5 0 6.903559-5.596441 12.5-12.5 12.5h-141c-6.903559 0-12.5-5.596441-12.5-12.5 0-6.90356 5.596441-12.5 12.5-12.5z" fill="#8792a2" opacity=".238" transform="translate(136.113 267.504)"/><g transform="translate(51 536)"><g fill="#8792a2"><ellipse cx="35.031" cy="36.333" opacity=".24" rx="35.031" ry="35.029"/><ellipse cx="60.326" cy="10.361" rx="8.361" ry="8.361" stroke="#fff" stroke-width="4"/><path d="m360.458302 77.9878413c6.906917 0 12.506079 5.5991625 12.506079 12.5060794s-5.599162 12.5060793-12.506079 12.5060793h-260.9878415c-6.9069169 0-12.5060794-5.5991624-12.5060794-12.5060793s5.5991625-12.5060794 12.5060794-12.5060794zm61-34.9878413c6.906917 0 12.506079 5.5991624 12.506079 12.5060793s-5.599162 12.5060794-12.506079 12.5060794h-321.9878415c-6.9069169 0-12.5060794-5.5991625-12.5060794-12.5060794s5.5991625-12.5060793 12.5060794-12.5060793zm494 0c6.906917 0 12.506079 5.5991624 12.506079 12.5060793s-5.599162 12.5060794-12.506079 12.5060794h-458.987842c-6.906916 0-12.506079-5.5991625-12.506079-12.5060794s5.599163-12.5060793 12.506079-12.5060793z" opacity=".238"/></g><rect fill="#1851be" height="18" rx="9" width="60" x="86.964"/><rect fill="#efe3f7" height="18" rx="3" width="42" x="156.964"/><rect fill="#e6f7e3" height="18" rx="3" width="44" x="204"/><rect fill="#cba3e5" height="6" rx="3" width="32" x="161.964" y="6"/><rect fill="#ade5a4" height="6" rx="3" width="34" x="209" y="6"/><rect fill="#8792a2" height="18" opacity=".12" rx="9" width="110" x="258"/></g><rect fill="#1851be" height="10.008" rx="3" width="40" x="942" y="663"/><rect fill="#1851be" height="10.008" rx="3" width="40" x="987" y="663"/><rect fill="#8792a2" height="10.008" opacity=".164" rx="3" width="6" x="1056.949" y="663"/><rect fill="#1851be" height="10.008" rx="3" width="6" x="1032.949" y="663"/><rect fill="#8792a2" height="10.008" opacity=".241" rx="3" width="12" x="1041.753" y="663.039"/><rect fill="#8792a2" height="10.008" opacity=".44" rx="3" width="12" x="1072.949" y="663"/><rect fill="#1851be" height="10.008" rx="3" width="40" x="942" y="432"/><rect fill="#1851be" height="10.008" rx="3" width="40" x="987" y="432"/><g fill="#8792a2"><rect height="10.008" opacity=".164" rx="3" width="6" x="1056.949" y="432"/><rect height="10.008" opacity=".164" rx="3" width="6" x="1032.949" y="432"/><rect height="10.008" opacity=".241" rx="3" width="12" x="1041.753" y="432.039"/><rect height="10.008" opacity=".44" rx="3" width="12" x="1072.949" y="432"/></g><rect fill="#1851be" height="18" rx="9" width="60" x="50" y="19"/><rect fill="#8792a2" height="8" opacity=".241" rx="3" width="12" x="115" y="24"/><rect fill="#8792a2" height="8" opacity=".241" rx="3" width="12" x="220" y="24"/><rect fill="#1851be" height="18" rx="9" width="83" x="132" y="19"/><rect fill="#8792a2" height="18" opacity=".141" rx="9" width="218" x="237" y="19"/><rect fill="#8792a2" height="18" opacity=".261" rx="9" width="26" x="465" y="19"/><rect fill="#1851be" height="18" rx="9" width="60" x="137" y="225"/><rect fill="#8792a2" height="18" opacity=".12" rx="9" width="110" x="207" y="225"/><g transform="translate(577 462)"><path d="m5 0h127v42h-127c-2.76142375 0-5-2.2385763-5-5v-32c0-2.76142375 2.23857625-5 5-5z" fill="url(#a)"/><rect fill="#5c84d1" height="10" rx="3" width="16" x="26" y="16"/><rect fill="#5c84d1" height="9" rx="3" width="58" x="52" y="16"/><path d="m132 0h21c2.761424 0 5 2.23857625 5 5v32c0 2.7614237-2.238576 5-5 5h-21z" fill="url(#a)" opacity=".262"/><rect fill="#1851be" height="10" rx="3" width="9" x="141" y="16"/></g><rect fill="#8792a2" height="18" opacity=".322" rx="3" width="34" x="533" y="466"/><rect fill="#8792a2" height="18" opacity=".322" rx="3" width="33" x="483" y="466"/><rect fill="#eceef0" height="10.008" rx="3" width="33" x="483" y="490.047"/><rect fill="#eceef0" height="10.008" rx="3" width="33" x="534" y="490.047"/><g transform="translate(966 462)"><rect fill="#e3e8ee" height="42" rx="5" width="121"/><g fill="#8792a2"><rect height="10" opacity=".452" rx="3" width="18" x="30" y="16"/><rect height="10" opacity=".452" rx="3" transform="matrix(-1 0 0 1 142 0)" width="38" x="52" y="16"/><rect height="10" opacity=".652" rx="3" width="14" x="11" y="16"/><rect height="10" rx="3" width="14" x="95" y="16"/></g></g><rect fill="#8792a2" height="10" opacity=".725" rx="3" width="14" x="932.929" y="478.045"/><rect height="41" rx="5" stroke="#8792a2" stroke-opacity=".24" width="97" x="858.5" y="462.5"/><rect fill="#8792a2" height="10" opacity=".176" rx="3" width="42" x="886" y="478"/><rect fill="#8792a2" height="10" opacity=".376" rx="3" width="14" x="867" y="478"/><rect fill="#8792a2" height="10" opacity=".725" rx="3" width="14" x="824.929" y="478.045"/><rect height="41" rx="5" stroke="#8792a2" stroke-opacity=".24" width="97" x="750.5" y="462.5"/><rect fill="#8792a2" height="10" opacity=".176" rx="3" width="42" x="778" y="478"/><rect fill="#8792a2" height="10" opacity=".376" rx="3" width="14" x="759" y="478"/></g></svg>

<svg xmlns="http://www.w3.org/2000/svg" width="1124" height="710" viewBox="0 0 1124 710">
  <defs>
    <linearGradient id="view-topic-qna-a" x1="50.007%" x2="50.007%" y1="-141.4%" y2="-47.015%">
      <stop offset="0%" stop-color="#2A6CBE"/>
      <stop offset="38.688%" stop-color="#2062BC"/>
      <stop offset="49.182%" stop-color="#1F5FBC"/>
      <stop offset="66.583%" stop-color="#1C5ABD"/>
      <stop offset="85.354%" stop-color="#1956BC"/>
      <stop offset="100%" stop-color="#1851BE"/>
    </linearGradient>
    <linearGradient id="view-topic-qna-b" x1="50.007%" x2="50.007%" y1="-141.4%" y2="-47.015%">
      <stop offset="0%" stop-color="#2A6CBE"/>
      <stop offset="38.688%" stop-color="#2062BC"/>
      <stop offset="49.182%" stop-color="#1F5FBC"/>
      <stop offset="66.583%" stop-color="#1C5ABD"/>
      <stop offset="85.354%" stop-color="#1956BC"/>
      <stop offset="100%" stop-color="#1851BE"/>
    </linearGradient>
  </defs>
  <g fill="none" fill-rule="evenodd">
    <g transform="translate(50 19)">
      <g transform="translate(.113 60.206)">
        <rect width="456.205" height="32" x="78.887" y="25.794" fill="#8792A2" opacity=".238" rx="16"/>
        <rect width="110" height="10" x="28.887" y=".794" fill="#FFB300" opacity=".453" rx="5"/>
        <rect width="23" height="10" x=".887" y=".794" fill="#FFB300" rx="5"/>
        <rect width="68" height="32" x=".887" y="25.794" fill="#8792A2" opacity=".238" rx="16"/>
      </g>
      <ellipse cx="35.031" cy="35.029" fill="#8792A2" opacity=".24" rx="35.031" ry="35.029" transform="translate(.036 207.304)"/>
      <ellipse cx="10.361" cy="10.361" fill="#1EB8C1" stroke="#FFF" stroke-width="4" rx="8.361" ry="8.361" transform="translate(50 206)"/>
      <path fill="#8792A2" d="M65.4493971 35.4840882C72.356314 35.4840882 77.9554764 41.0832506 77.9554764 47.9901675 77.9554764 54.8970844 72.356314 60.4962469 65.4493971 60.4962469L13.3929894 60.4962469C6.4860725 60.4962469.886910062 54.8970844.886910062 47.9901675.886910062 41.0832506 6.4860725 35.4840882 13.3929894 35.4840882L65.4493971 35.4840882zM385.576735 35.4840882C392.483651 35.4840882 398.082814 41.0832506 398.082814 47.9901675 398.082814 54.8970844 392.483651 60.4962469 385.576735 60.4962469L385.576735 60.4962469 100.392989 60.4962469C93.4860725 60.4962469 87.8869101 54.8970844 87.8869101 47.9901675 87.8869101 41.0832506 93.4860725 35.4840882 100.392989 35.4840882L100.392989 35.4840882zM525.380831.496246872C532.287748.496246872 537.88691 6.09540931 537.88691 13.0023262 537.88691 19.9092431 532.287748 25.5084056 525.380831 25.5084056L13.3929894 25.5084056C6.4860725 25.5084056.886910062 19.9092431.886910062 13.0023262.886910062 6.09540931 6.4860725.496246872 13.3929894.496246872L525.380831.496246872zM829.380831.496246872C836.287748.496246872 841.88691 6.09540931 841.88691 13.0023262 841.88691 19.9092431 836.287748 25.5084056 829.380831 25.5084056L560.392989 25.5084056C553.486073 25.5084056 547.88691 19.9092431 547.88691 13.0023262 547.88691 6.09540931 553.486073.496246872 560.392989.496246872L829.380831.496246872zM124.38691 105.496247C131.290469 105.496247 136.88691 111.092687 136.88691 117.996247 136.88691 124.899806 131.290469 130.496247 124.38691 130.496247L13.3869101 130.496247C6.48335069 130.496247.886910062 124.899806.886910062 117.996247.886910062 111.092687 6.48335069 105.496247 13.3869101 105.496247L124.38691 105.496247zM300.38691 105.496247C307.290469 105.496247 312.88691 111.092687 312.88691 117.996247 312.88691 124.899806 307.290469 130.496247 300.38691 130.496247L300.38691 130.496247 159.38691 130.496247C152.483351 130.496247 146.88691 124.899806 146.88691 117.996247 146.88691 111.092687 152.483351 105.496247 159.38691 105.496247L159.38691 105.496247z" opacity=".238" transform="translate(86.113 248.504)"/>
      <g transform="translate(1 517)">
        <ellipse cx="35.031" cy="36.333" fill="#8792A2" opacity=".24" rx="35.031" ry="35.029"/>
        <ellipse cx="60.326" cy="10.361" fill="#8792A2" stroke="#FFF" stroke-width="4" rx="8.361" ry="8.361"/>
        <path fill="#8792A2" d="M360.458302,77.9878413 C367.365219,77.9878413 372.964381,83.5870038 372.964381,90.4939207 C372.964381,97.4008376 367.365219,103 360.458302,103 L99.4704605,103 C92.5635436,103 86.9643811,97.4008376 86.9643811,90.4939207 C86.9643811,83.5870038 92.5635436,77.9878413 99.4704605,77.9878413 L360.458302,77.9878413 Z M421.458302,43 C428.365219,43 433.964381,48.5991624 433.964381,55.5060793 C433.964381,62.4129962 428.365219,68.0121587 421.458302,68.0121587 L99.4704605,68.0121587 C92.5635436,68.0121587 86.9643811,62.4129962 86.9643811,55.5060793 C86.9643811,48.5991624 92.5635436,43 99.4704605,43 L421.458302,43 Z M915.458302,43 C922.365219,43 927.964381,48.5991624 927.964381,55.5060793 C927.964381,62.4129962 922.365219,68.0121587 915.458302,68.0121587 L456.47046,68.0121587 C449.563544,68.0121587 443.964381,62.4129962 443.964381,55.5060793 C443.964381,48.5991624 449.563544,43 456.47046,43 L915.458302,43 Z" opacity=".238"/>
        <rect width="60" height="18" x="86.964" fill="#1851BE" rx="9"/>
        <rect width="42" height="18" x="156.964" fill="#EFE3F7" rx="3"/>
        <rect width="44" height="18" x="204" fill="#E6F7E3" rx="3"/>
        <rect width="32" height="6" x="161.964" y="6" fill="#CBA3E5" rx="3"/>
        <rect width="34" height="6" x="209" y="6" fill="#ADE5A4" rx="3"/>
        <rect width="110" height="18" x="258" fill="#8792A2" opacity=".12" rx="9"/>
      </g>
      <g transform="translate(892 644)">
        <rect width="40" height="10.008" fill="#1851BE" rx="3"/>
        <rect width="40" height="10.008" x="45" fill="#1851BE" rx="3"/>
        <rect width="6" height="10.008" x="114.949" fill="#8792A2" opacity=".164" rx="3"/>
        <rect width="6" height="10.008" x="90.949" fill="#1851BE" rx="3"/>
        <rect width="12" height="10.008" x="99.753" y=".039" fill="#8792A2" opacity=".241" rx="3"/>
        <rect width="12" height="10.008" x="130.949" fill="#8792A2" opacity=".44" rx="3"/>
      </g>
      <g transform="translate(892 413)">
        <rect width="40" height="10.008" fill="#1851BE" rx="3"/>
        <rect width="40" height="10.008" x="45" fill="#1851BE" rx="3"/>
        <rect width="6" height="10.008" x="114.949" fill="#8792A2" opacity=".164" rx="3"/>
        <rect width="6" height="10.008" x="90.949" fill="#8792A2" opacity=".164" rx="3"/>
        <rect width="12" height="10.008" x="99.753" y=".039" fill="#8792A2" opacity=".241" rx="3"/>
        <rect width="12" height="10.008" x="130.949" fill="#8792A2" opacity=".44" rx="3"/>
      </g>
    </g>
    <rect width="60" height="18" x="50" y="19" fill="#1851BE" rx="9"/>
    <rect width="12" height="8" x="115" y="24" fill="#8792A2" opacity=".241" rx="3"/>
    <rect width="12" height="8" x="220" y="24" fill="#8792A2" opacity=".241" rx="3"/>
    <rect width="83" height="18" x="132" y="19" fill="#1851BE" rx="9"/>
    <rect width="218" height="18" x="237" y="19" fill="#8792A2" opacity=".141" rx="9"/>
    <rect width="26" height="18" x="465" y="19" fill="#8792A2" opacity=".261" rx="9"/>
    <rect width="60" height="18" x="137" y="225" fill="#1851BE" rx="9"/>
    <rect width="110" height="18" x="207" y="225" fill="#8792A2" opacity=".12" rx="9"/>
    <g transform="translate(483 462)">
      <g transform="translate(94)">
        <path fill="url(#view-topic-qna-a)" d="M5,0 L132,0 L132,0 L132,42 L5,42 C2.23857625,42 3.38176876e-16,39.7614237 0,37 L0,5 C-3.38176876e-16,2.23857625 2.23857625,5.07265313e-16 5,0 Z"/>
        <rect width="16" height="10" x="26" y="16" fill="#5C84D1" rx="3"/>
        <rect width="58" height="9" x="52" y="16" fill="#5C84D1" rx="3"/>
        <path fill="url(#view-topic-qna-b)" d="M132,0 L153,0 C155.761424,-5.07265313e-16 158,2.23857625 158,5 L158,37 C158,39.7614237 155.761424,42 153,42 L132,42 L132,42 L132,0 Z" opacity=".262"/>
        <rect width="9" height="10" x="141" y="16" fill="#1851BE" rx="3"/>
      </g>
      <rect width="34" height="18" x="50" y="4" fill="#8792A2" opacity=".322" rx="3"/>
      <rect width="33" height="18" y="4" fill="#8792A2" opacity=".322" rx="3"/>
      <rect width="33" height="10.008" y="28.047" fill="#ECEEF0" rx="3"/>
      <rect width="33" height="10.008" x="51" y="28.047" fill="#ECEEF0" rx="3"/>
      <g transform="translate(266.872)">
        <g transform="translate(216.128)">
          <rect width="121" height="42" fill="#E3E8EE" rx="5"/>
          <rect width="18" height="10" x="30" y="16" fill="#8792A2" opacity=".452" rx="3"/>
          <rect width="38" height="10" x="52" y="16" fill="#8792A2" opacity=".452" rx="3" transform="matrix(-1 0 0 1 142 0)"/>
          <rect width="14" height="10" x="11" y="16" fill="#8792A2" opacity=".652" rx="3"/>
          <rect width="14" height="10" x="95" y="16" fill="#8792A2" rx="3"/>
        </g>
        <g transform="translate(108.128)">
          <rect width="14" height="10" x="74.929" y="16.045" fill="#8792A2" opacity=".725" rx="3"/>
          <rect width="97" height="41" x=".5" y=".5" stroke="#8792A2" stroke-opacity=".24" rx="5"/>
          <rect width="42" height="10" x="28" y="16" fill="#8792A2" opacity=".176" rx="3"/>
          <rect width="14" height="10" x="9" y="16" fill="#8792A2" opacity=".376" rx="3"/>
        </g>
        <g transform="translate(.128)">
          <rect width="14" height="10" x="74.929" y="16.045" fill="#8792A2" opacity=".725" rx="3"/>
          <rect width="97" height="41" x=".5" y=".5" stroke="#8792A2" stroke-opacity=".24" rx="5"/>
          <rect width="42" height="10" x="28" y="16" fill="#8792A2" opacity=".176" rx="3"/>
          <rect width="14" height="10" x="9" y="16" fill="#8792A2" opacity=".376" rx="3"/>
        </g>
      </g>
    </g>
  </g>
</svg>
